X:1
T:Derby Polka
T:Under the Balcony 
T:"The Nonpareil Guitar Folio" vol.2 (1902)
T:R. L. Seamon (18?? - 19??)
T:Waltz
C:Stahl
%%score ( 1 2 3 )
L:1/8
Q:1/4=132
M:3/4
K:C
V:1 treble-8 nm="Guitare classique"
V:2 treble-8 
V:3 treble-8 
V:1
S!p! z2 [Gce]2 z2 | z2 [Gce]2 z2 | z2 [Gce]2 z2 | z2 [Gce]2 z2 | z2"^₵1" !2![Acf]2 [Acf]2 | %5
 z2 [Acf]2 [Acf]2 | z2 [Gce]2 [Gce]2 | [Gce]2 [Gce]2 [Gce]2 | z2 [Gce]2 z2 | z2 [Gce]2 z2 | %10
 z2 [Gce]2 z2 | z2 [Gce]2 z2 | z2 [Ac^f]2 [Acf]2 | z2 [Ac^f]2 [Acf]2 |"_rit." z2 [GB=f]2 [GBf]2 | %15
 [GBf]2 z2 z2 |"^a tempo." z2 [Gce]2 z2 | z2 [Gce]2 z2 | z2 [Gce]2 z2 | z2 [Gce]2 z2 | %20
 z2 [Acf]2 [Acf]2 | z2 [Acf]2 [Acf]2 | z2 [^GBe]2 [GBe]2 | [^GBe]2 z2 z2 |!p! z2 [GBf]2 z2 | %25
 z2 [GBf]2 z2 | z2 [Gce]2 z2 | z2 [Gce]2 z2 | z2 [Gce]2 [Gce]2 | z2 [GBf]2 [GBf]2 | %30
 z2 [Gce]2 [Gce]2 | [Gce]2 z2 z2!fine! ::!f! z6 | z2 [Ace]2 !4!a2 | !1!f4 a2 | e6 | e3 d ef | %37
 e2 [^Gd]2 [GB]2 | c3 B cd | e6 | z6 | z2 [Ace]2 a2 | f4 a2 | e6 | e3 d ef | ed c2 B2 |1 %46
 A2 z2 [Ace]2 |"^₵5" !>![cea]2 z2 z2 :|2"_rit." A4 _A2 | G6!D.C.! || %50
[K:F][M:3/4]!p!"^C1" z2 !2![Acf]2 [Acf]2 |"^₵1" z2 [Acf]2 z2 | z2 [Acf]2 [Acf]2 | %53
 z2 [Acf]2 [Acf]2 | z6 | z6 | z2 !4!!1!!0![Bce]2 [Bce]2 | [Bce]2 [Bce]2 [Bce]2 | z2 [Bce]2 [Bce]2 | %59
 z2 !2![ce]2 z2 | z2 [Bce]2 [Bce]2 | [Bce]2 [Bce]2 [Bce]2 | z6 | z6 | z2 [Acf]2 [Acf]2 | %65
 [Acf]2 [Acf]2 [Acf]2 | z2 [Acf]2 [Acf]2 | z2 [Acf]2 z2 | z2 [Acf]2 [Acf]2 | z2 [Acf]2 [Acf]2 | %70
 z6 | z6 | z2 !3!!4!!1![Bdf]2 [Bdf]2 | [Bdf]2 z2 z2 | z2 [Bdf]2 [Bdf]2 | z2 [Bdf]2 [Bdf]2 | %76
"^₵1" z2 [Acf]2 [Acf]2 | z2 [Acf]2 [Acf]2 | z2 [Acf]2 [Acf]2 | z2 [Bce]2 [Bce]2 | %80
"^C1" z2 [Acf]2 [Acf]2 | [Acf]2 z2 z2!D.S.! |] %82
V:2
 G,4 E,2 | G,4 C2 | E4 D2 | C4 B,2 | A,6 | F6 | G,6- | G,6 | G,4 E,2 | G,4 C2 | E4 D2 | C4 ^C2 | %12
 D6 | A,6 | B,6- | B,2 A,2 _A,2 | G,4 E,2 | G,4 C2 | E4 D2 | C4 B,2 | A,6 | F6 | E6- | E2 z2 z2 | %24
 D4 C2 | B,4 A,2 | G,4 A,2 | B,4 C2 | E6 | D6 | C6- | C2 z2 z2 :: A,3 B, CD | E4 z2 | !0!D6 | A,6 | %36
 E,6 | E,6 | A,6 | E,6 | A,3 B, CD | E4 z2 | D6 | A,6 | E,6 | E,6 |1 A,2 z2 A,2 | A,2 z2 z2 :|2 %48
 A,6 | G,6 ||[K:F][M:3/4] F,6 | A,4 C2 | F6 | C6 | F2 E2 D2 | C2 D2 F2 | !2!E6- | E2 z2 z2 | %58
 !3!G,6 | !1!B,4 !3!C2 | !2!E6 | C6 | E2 D2 C2 | B,2 C2 D2 | A,6- | A,2 z2 z2 | F,6 | A,4 C2 | F6 | %69
 C6 | F2 E2 F2 | G4 F2 | D6- | D2 z2 z2 | D6 | F6 | F6 | C6 | A,6 | G,6 | F,6- | F,2 z2 z2 |] %82
V:3
 x6 | x6 | x6 | x6 | x6 | x6 | x6 | x6 | x6 | x6 | x6 | x6 | x6 | x6 | x6 | x6 | x6 | x6 | x6 | %19
 x6 | x6 | x6 | x6 | x6 | x6 | x6 | x6 | x6 | x6 | x6 | x6 | x6 :: x6 | x6 | z2 !2!!4![Ad]2 z2 | %35
 z2 [Ac]2 [Ac]2 | x6 | x6 | x6 | z2 [E^G]2 [EG]2 | x6 | x6 | z2 [Ad]2 z2 | z2 [Ac]2 [Ac]2 | x6 | %45
 x6 |1 x6 | x6 :|2 x6 | x6 ||[K:F][M:3/4] x6 | x6 | x6 | x6 | x6 | x6 | x6 | x6 | x6 | x6 | x6 | %61
 x6 | x6 | x6 | x6 | x6 | x6 | x6 | x6 | x6 | x6 | x6 | x6 | x6 | x6 | x6 | x6 | x6 | x6 | x6 | %80
 x6 | x6 |] %82

